assets/img/svg/accessibility-icon.svg

<svg width="25" height="24" viewBox="0 0 25 24" fill="none" xmlns="http://www.w3.org/2000/svg">
<g clip-path="url(#clip0_46_1204)">
<path d="M12.9244 4.5C13.96 4.5 14.7994 3.66053 14.7994 2.625C14.7994 1.58947 13.96 0.75 12.9244 0.75C11.8889 0.75 11.0494 1.58947 11.0494 2.625C11.0494 3.66053 11.8889 4.5 12.9244 4.5Z" stroke="#591567" stroke-width="1.5" stroke-linejoin="round"/>
<path d="M10.4977 12.8644C10.6336 12.0178 10.6946 11.1994 10.4742 10.6336C10.2867 10.147 9.87893 9.87468 9.38674 9.68906L5.0494 8.28562C4.4869 8.09812 3.96143 7.78406 3.9244 7.16343C3.87753 6.36656 4.58065 5.85093 5.28378 6.03843C5.28378 6.03843 9.40878 7.49812 12.9244 7.49812C16.44 7.49812 20.5182 6.045 20.5182 6.045C21.3619 5.81062 21.9244 6.46687 21.9244 7.16015C21.9244 7.82625 21.4088 8.06062 20.7994 8.28234L16.6744 9.77812C16.2994 9.91875 15.69 10.2 15.4557 10.6303C15.1744 11.1342 15.2213 12.0145 15.3572 12.8611L15.6338 14.25L17.3874 21.9328C17.5186 22.5492 17.0921 23.1253 16.478 23.2331C15.8639 23.3409 15.3619 22.9219 15.18 22.3256L13.4194 16.8914C13.3347 16.6308 13.2597 16.3672 13.1944 16.1006L12.9244 15L12.676 16.0148C12.5972 16.3383 12.5066 16.6583 12.4041 16.9748L10.6744 22.3209C10.4869 22.9233 9.99471 23.3405 9.38065 23.2331C8.76659 23.1258 8.33065 22.5023 8.46846 21.9328L10.2211 14.2533L10.4977 12.8644Z" stroke="#591567" stroke-width="1.5" stroke-linejoin="round"/>
</g>
<defs>
<clipPath id="clip0_46_1204">
<rect width="24" height="24" fill="white" transform="translate(0.924438)"/>
</clipPath>
</defs>
</svg>

<svg width="25" height="24" fill="none" xmlns="http://www.w3.org/2000/svg"><g clip-path="url(#clip0_46_1204)" stroke="#591567" stroke-width="1.5" stroke-linejoin="round"><path d="M12.924 4.5a1.875 1.875 0 100-3.75 1.875 1.875 0 000 3.75zm-2.426 8.364c.136-.846.197-1.665-.024-2.23-.187-.487-.595-.76-1.087-.945L5.049 8.286c-.562-.188-1.088-.502-1.125-1.123a1.071 1.071 0 011.36-1.125s4.125 1.46 7.64 1.46c3.516 0 7.594-1.453 7.594-1.453.844-.234 1.406.422 1.406 1.115 0 .666-.515.9-1.125 1.122l-4.125 1.496c-.375.14-.984.422-1.218.852-.282.504-.235 1.384-.099 2.231l.277 1.389 1.753 7.683c.132.616-.295 1.192-.909 1.3-.614.108-1.116-.311-1.298-.907l-1.76-5.435c-.085-.26-.16-.524-.226-.79L12.924 15l-.248 1.015c-.079.323-.17.643-.272.96l-1.73 5.346c-.187.602-.68 1.02-1.293.912-.614-.107-1.05-.73-.913-1.3l1.753-7.68.277-1.389z"/></g><defs><clipPath id="clip0_46_1204"><path fill="#fff" transform="translate(.924)" d="M0 0h24v24H0z"/></clipPath></defs></svg>
